X: 12
T: Foxhunter, The
Z: Dr. Dow
S: https://thesession.org/tunes/482#setting15801
R: slip jig
M: 9/8
L: 1/8
K: Edor
|:f3 ~f3 g2e|f3 f2d e2d|f3 f2d g2d|a2f d2f e2d:|
|:B3 B2A G2A|B2E E2F G2A|B3 B2A G2B|d2A D2F E2D:|

